lib/logo_updates/nrk-logo-nrk-p1-plus-on-light.svg

<svg width="221" height="48" viewBox="0 0 221 48" fill="none" xmlns="http://www.w3.org/2000/svg">
<path d="M0 45V3.00381H13.7802V45H0ZM32.5283 9.68773L40.4532 45H25.3721L15.9092 3.00381H24.3676C26.3072 2.97864 28.1892 3.66237 29.6607 4.92636C31.1347 6.13734 32.1473 7.81844 32.5283 9.68773ZM42.5233 45V3.00381H56.3035V45H42.5233ZM66.7116 18.9743C65.2267 18.9888 63.7656 18.6003 62.4839 17.8504C61.2193 17.1194 60.1688 16.0689 59.438 14.8041C58.6872 13.5222 58.2986 12.0607 58.3134 10.5751C58.2964 9.09861 58.6853 7.64583 59.438 6.3755C60.1766 5.12447 61.2259 4.08533 62.4839 3.35882C63.766 2.60976 65.2269 2.2213 66.7116 2.23484C68.1877 2.21895 69.6399 2.60775 70.9108 3.35882C72.1562 4.09169 73.1943 5.12996 73.9271 6.3755C74.6789 7.64618 75.0677 9.09873 75.0517 10.5751C75.0655 12.0605 74.6769 13.5218 73.9271 14.8041C73.202 16.0633 72.1627 17.113 70.9108 17.8504C69.6398 18.6029 68.1866 18.9918 66.7097 18.9743H66.7116ZM77.1807 45V3.00381H90.9621V45H77.1807ZM108.408 25.9538C108.447 25.9946 108.742 26.4776 109.295 27.403C109.848 28.3283 110.567 29.5114 111.454 30.952C112.341 32.392 113.277 33.9199 114.262 35.536C115.247 37.1521 116.174 38.6803 117.043 40.1202C117.908 41.5602 118.894 43.1867 120 45H104.859C103.912 43.4621 103.055 42.0721 102.286 40.83C101.517 39.5878 100.7 38.2471 99.8334 36.8077C98.9653 35.3698 98.1071 33.9699 97.2587 32.6081C96.4103 31.2464 95.6813 30.0536 95.0714 29.0297C94.459 28.0051 94.0348 27.3149 93.7989 26.9594C93.2139 26.0771 92.8677 25.058 92.7944 24.0019C92.853 22.9883 93.1791 22.0084 93.7397 21.1619C93.9762 20.7676 94.41 20.0675 95.0409 19.062C95.6717 18.0564 96.411 16.8637 97.2587 15.4835C98.1064 14.1034 98.9647 12.6936 99.8334 11.2543C100.702 9.81501 101.519 8.46432 102.286 7.20247C103.056 5.94193 103.914 4.54205 104.859 3.00285H120L108.289 22.1082C107.926 22.6755 107.722 23.3292 107.697 24.0019C107.736 24.7081 107.983 25.3871 108.406 25.9538H108.408Z" fill="#0A2343"/>
<path d="M164.472 8.44293C163.746 7.32126 162.813 6.34788 161.725 5.57429C160.511 4.72346 159.163 4.08352 157.738 3.68147C156.007 3.20306 154.217 2.97438 152.421 3.00228H136V44.9981H142.202V29.9151H152.894C155.307 29.9521 157.689 29.3611 159.805 28.1997C161.834 27.0751 163.518 25.4189 164.678 23.4087C165.922 21.1905 166.544 18.6773 166.48 16.1343C166.485 14.7596 166.327 13.3891 166.008 12.052C165.7 10.7716 165.181 9.55167 164.472 8.44293ZM158.978 21.1896C158.184 22.4369 157.016 23.4001 155.641 23.9411C153.972 24.5729 152.196 24.8742 150.412 24.8282H142.202V8.14822H151.24C152.966 8.08264 154.684 8.41661 156.261 9.12417C157.515 9.73133 158.54 10.7269 159.185 11.9633C159.867 13.3504 160.202 14.8833 160.159 16.4291C160.227 18.0963 159.817 19.7481 158.978 21.1896Z" fill="#015F88"/>
<path d="M179.09 4.39213C178.244 4.84561 177.417 5.26924 176.61 5.66291C175.804 6.05658 174.986 6.45086 174.159 6.84585C173.332 7.24017 172.485 7.59613 171.619 7.91061C170.753 8.22508 169.826 8.54248 168.842 8.85695L170.142 13.8846C171.324 13.5297 172.396 13.1749 173.361 12.82C174.306 12.4741 175.232 12.0792 176.137 11.6369C177.024 11.2045 177.91 10.7316 178.795 10.2184L178.824 10.2007V45H184.967V3.00414H181.778C180.832 3.47536 179.936 3.93799 179.09 4.39213Z" fill="#015F88"/>
<path d="M209.009 21.6924V9.74524H203.811V21.6924H191.82V26.3652H203.811V38.2552H209.009V26.3652H221V21.6924H209.009Z" fill="#015F88"/>
</svg>

<svg xmlns="http://www.w3.org/2000/svg" viewBox="0 0 221 48"><path fill="#0A2343" d="M0 45V3.004h13.78V45H0ZM32.528 9.688 40.453 45h-15.08L15.908 3.004h8.459a7.965 7.965 0 0 1 5.293 1.922 8.31 8.31 0 0 1 2.867 4.762ZM42.523 45V3.004h13.78V45h-13.78Zm24.189-26.026a8.213 8.213 0 0 1-4.228-1.124 8.336 8.336 0 0 1-3.046-3.046 8.206 8.206 0 0 1-1.125-4.229 8.056 8.056 0 0 1 1.125-4.2 8.437 8.437 0 0 1 3.046-3.016 8.232 8.232 0 0 1 4.228-1.124 8.083 8.083 0 0 1 4.199 1.124 8.503 8.503 0 0 1 3.016 3.016 8.075 8.075 0 0 1 1.125 4.2 8.226 8.226 0 0 1-1.125 4.23 8.4 8.4 0 0 1-3.016 3.045 8.059 8.059 0 0 1-4.201 1.124h.002ZM77.18 45V3.004h13.781V45H77.181Zm31.227-19.046c.039.04.334.524.887 1.449.553.925 1.272 2.108 2.159 3.549a1143.28 1143.28 0 0 1 5.589 9.168A854.89 854.89 0 0 0 120 45h-15.141c-.947-1.538-1.804-2.928-2.573-4.17a382.214 382.214 0 0 1-2.453-4.022 351.934 351.934 0 0 0-2.574-4.2 213.445 213.445 0 0 1-2.188-3.578 62.753 62.753 0 0 0-1.272-2.07 6.119 6.119 0 0 1-1.005-2.958 5.744 5.744 0 0 1 .946-2.84c.236-.394.67-1.095 1.3-2.1.632-1.006 1.371-2.198 2.219-3.579a636.03 636.03 0 0 0 2.574-4.229c.869-1.439 1.686-2.79 2.453-4.052.77-1.26 1.628-2.66 2.573-4.2H120l-11.711 19.106a3.773 3.773 0 0 0-.592 1.894c.039.706.286 1.385.709 1.952h.002Z"/><path fill="#015F88" d="M164.472 8.443a10.565 10.565 0 0 0-2.747-2.869 13.186 13.186 0 0 0-3.987-1.893 18.858 18.858 0 0 0-5.317-.679H136v41.996h6.202V29.915h10.692a13.92 13.92 0 0 0 6.911-1.715 12.779 12.779 0 0 0 4.873-4.791 14.144 14.144 0 0 0 1.802-7.275 17.32 17.32 0 0 0-.472-4.082c-.308-1.28-.827-2.5-1.536-3.61Zm-5.494 12.747a6.99 6.99 0 0 1-3.337 2.751 13.768 13.768 0 0 1-5.229.887h-8.21V8.148h9.038a11.224 11.224 0 0 1 5.021.976 6.487 6.487 0 0 1 2.924 2.84 9.523 9.523 0 0 1 .974 4.465 8.755 8.755 0 0 1-1.181 4.76ZM179.09 4.392c-.846.454-1.673.877-2.48 1.27-.806.395-1.624.789-2.451 1.184-.827.394-1.674.75-2.54 1.065-.866.314-1.793.631-2.777.946l1.3 5.028a56.132 56.132 0 0 0 3.219-1.065c.945-.346 1.871-.74 2.776-1.183a41.902 41.902 0 0 0 2.658-1.419l.029-.017V45h6.143V3.004h-3.189c-.946.471-1.842.934-2.688 1.388ZM209.009 21.692V9.745h-5.198v11.947H191.82v4.673h11.991v11.89h5.198v-11.89H221v-4.673h-11.991Z"/></svg>
